X: 566
T: This is Not My Sweetheart.
T: ni sise mo .muirnin
N:Moderate" "Collected from J. O'Neill"
B:O'Neill's 566
Z:Transcribed by J.B. Walsh walsh@math.ubc.ca
Z:Related to Scots reel High Road to Linton
M:C
L:1/8
%Q:90
K:C
G|EGGA c2 (cG)|(A/B/c) GE ({G}FD)DG|EGGA c2 (g>e)|c>AG>F EC C:|
G|EGGc AcGE|FAGC (B,D)DG|EGGc AcGE|(FA)G>F (EC)CG|
EGGc AcGE|(FA)GC (B,D)(DG)|EGGA c2 (g>e)|c>AG>F EC C||


